packages/core/assets/Icons/bluetooth.svg

<svg viewBox="0 0 20 20" fill="none" xmlns="http://www.w3.org/2000/svg">
<path d="M9.16683 17.1458V12L5.91683 15.25C5.76405 15.4028 5.56961 15.4792 5.3335 15.4792C5.09738 15.4792 4.90294 15.4028 4.75016 15.25C4.59738 15.0972 4.521 14.9028 4.521 14.6667C4.521 14.4306 4.59738 14.2361 4.75016 14.0833L8.8335 10L4.75016 5.91667C4.59738 5.76389 4.521 5.56944 4.521 5.33333C4.521 5.09722 4.59738 4.90278 4.75016 4.75C4.90294 4.59722 5.09738 4.52083 5.3335 4.52083C5.56961 4.52083 5.76405 4.59722 5.91683 4.75L9.16683 8V2.85417C9.16683 2.60417 9.25016 2.39931 9.41683 2.23958C9.5835 2.07986 9.77794 2 10.0002 2C10.1113 2 10.2154 2.02083 10.3127 2.0625C10.4099 2.10417 10.5002 2.16667 10.5835 2.25L14.1668 5.83333C14.2502 5.91667 14.3092 6.00694 14.3439 6.10417C14.3786 6.20139 14.396 6.30556 14.396 6.41667C14.396 6.52778 14.3786 6.63194 14.3439 6.72917C14.3092 6.82639 14.2502 6.91667 14.1668 7L11.1668 10L14.1668 13C14.2502 13.0833 14.3092 13.1736 14.3439 13.2708C14.3786 13.3681 14.396 13.4722 14.396 13.5833C14.396 13.6944 14.3786 13.7986 14.3439 13.8958C14.3092 13.9931 14.2502 14.0833 14.1668 14.1667L10.5835 17.75C10.5002 17.8333 10.4099 17.8958 10.3127 17.9375C10.2154 17.9792 10.1113 18 10.0002 18C9.77794 18 9.5835 17.9201 9.41683 17.7604C9.25016 17.6007 9.16683 17.3958 9.16683 17.1458ZM10.8335 8L12.4168 6.41667L10.8335 4.875V8ZM10.8335 15.125L12.4168 13.5833L10.8335 12V15.125Z" fill="currentColor"/>
</svg>

<svg xmlns="http://www.w3.org/2000/svg" width="20" height="20" fill="none" viewBox="0 0 20 20">
  <path fill="#201F1F" d="M9.167 17.146V12l-3.25 3.25a.79.79 0 0 1-.583.23.79.79 0 0 1-.584-.23.79.79 0 0 1-.229-.583.79.79 0 0 1 .23-.584L8.833 10 4.75 5.917a.79.79 0 0 1-.229-.584.79.79 0 0 1 .23-.583.79.79 0 0 1 .582-.23.79.79 0 0 1 .584.23L9.167 8V2.854a.81.81 0 0 1 .25-.614.817.817 0 0 1 1.167.01l3.583 3.583a.73.73 0 0 1 .177.271.923.923 0 0 1 .052.313.923.923 0 0 1-.052.312.73.73 0 0 1-.177.271l-3 3 3 3a.73.73 0 0 1 .177.27.923.923 0 0 1 .052.313.923.923 0 0 1-.052.313.73.73 0 0 1-.177.27l-3.583 3.584a.866.866 0 0 1-.271.188.817.817 0 0 1-.896-.177.814.814 0 0 1-.25-.615ZM10.834 8l1.583-1.583-1.583-1.542V8Zm0 7.125 1.583-1.542L10.834 12v3.125Z"/>
</svg>
